build/assets/facebookIcon.svg

<svg width="61" height="60" viewBox="0 0 61 60" fill="none" xmlns="http://www.w3.org/2000/svg">
<path d="M60.6074 30C60.6074 13.4298 47.1777 0 30.6074 0C14.0372 0 0.607422 13.4298 0.607422 30C0.607422 44.9766 11.5762 57.3867 25.9199 59.6367V38.6719H18.3027V30H25.9199V23.3906C25.9199 15.873 30.3965 11.7188 37.2519 11.7188C40.5332 11.7188 43.9668 12.3047 43.9668 12.3047V19.6875H40.1817C36.455 19.6875 35.2949 22.002 35.2949 24.375V30H43.6152L42.2852 38.6719H35.2949V59.6367C49.6387 57.3867 60.6074 44.9766 60.6074 30Z" fill="#1877F2"/>
<path d="M42.2852 38.6719L43.6152 30H35.295V24.375C35.295 22.002 36.4551 19.6875 40.1817 19.6875H43.9669V12.3047C43.9669 12.3047 40.5332 11.7188 37.252 11.7188C30.3966 11.7188 25.92 15.873 25.92 23.3906V30H18.3027V38.6719H25.92V59.6367C27.4492 59.877 29.0137 60 30.6075 60C32.2012 60 33.7657 59.877 35.295 59.6367V38.6719H42.2852Z" fill="white"/>
</svg>

<svg width="61" height="60" fill="none" xmlns="http://www.w3.org/2000/svg"><path d="M60.607 30c0-16.57-13.43-30-30-30s-30 13.43-30 30c0 14.977 10.97 27.387 25.313 29.637V38.672h-7.617V30h7.617v-6.61c0-7.517 4.476-11.671 11.332-11.671 3.281 0 6.715.586 6.715.586v7.383h-3.785c-3.727 0-4.887 2.314-4.887 4.687V30h8.32l-1.33 8.672h-6.99v20.965C49.639 57.387 60.607 44.977 60.607 30Z" fill="#1877F2"/><path d="M42.285 38.672 43.615 30h-8.32v-5.625c0-2.373 1.16-4.688 4.887-4.688h3.785v-7.382s-3.434-.586-6.715-.586c-6.855 0-11.332 4.154-11.332 11.672V30h-7.617v8.672h7.617v20.965c1.53.24 3.094.363 4.688.363 1.593 0 3.158-.123 4.687-.363V38.672h6.99Z" fill="#fff"/></svg>
